brandFactory_export/1.Light/Señal carretera_1Light.svg

<?xml version="1.0" encoding="UTF-8"?>
<svg width="24px" height="24px" viewBox="0 0 24 24" version="1.1" xmlns="http://www.w3.org/2000/svg" xmlns:xlink="http://www.w3.org/1999/xlink">
    <title>1.Light/Señal carretera_1Light</title>
    <g id="Symbols" stroke="none" stroke-width="1" fill="none" fill-rule="evenodd">
        <g id="1.Light/Señal-carretera_1Light" fill="#5CB615" fill-rule="nonzero">
            <path d="M11.8084034,22.6386555 C18.994958,22.6386555 22.6352941,18.9983193 22.6352941,11.8151261 C22.6352941,4.62857143 18.9915966,0.988235294 11.8084034,0.988235294 C4.62521008,0.988235294 0.98487395,4.63193277 0.98487395,11.8151261 C0.98487395,18.9983193 4.62857143,22.6386555 11.8084034,22.6386555 Z M11.8084034,0 C19.5394958,0 23.6235294,4.08739496 23.6235294,11.8151261 C23.6235294,19.5394958 19.5394958,23.6235294 11.8084034,23.6235294 C4.08403361,23.6235294 0,19.5394958 0,11.8151261 C0,4.08739496 4.08403361,0 11.8084034,0 Z M13.9294118,12.4134454 L17.1563025,9.29411765 L13.9294118,6.16470588 L13.9294118,7.34453782 C13.9294118,7.61680672 13.6336134,7.89915966 13.3647059,7.89915966 L8.51764706,7.89915966 C8.47394958,7.89915966 8.4302521,7.91596639 8.39663866,7.94957983 C8.36302521,7.97983193 8.34621849,8.02352941 8.34621849,8.07058824 L8.34621849,17.7277311 L10.9109244,17.7277311 L10.9109244,11.1798319 C10.9109244,10.907563 11.1327731,10.6890756 11.4016807,10.6890756 L13.3579832,10.6890756 C13.502521,10.6991597 13.6403361,10.7630252 13.7411765,10.8638655 C13.8352941,10.9579832 13.9226891,11.112605 13.9226891,11.2436975 C13.9294118,11.2436975 13.9294118,12.4134454 13.9294118,12.4134454 L13.9294118,12.4134454 Z M14.2352941,5.09243697 L17.9831933,8.72605042 C18.2957983,9.01512605 18.3159664,9.50252101 18.0268908,9.81512605 C18.0067227,9.83865546 17.9831933,9.86218487 17.9563025,9.88235294 L14.2689076,13.4521008 C13.989916,13.6806723 13.6672269,13.7176471 13.3915966,13.589916 C13.1193277,13.4621849 12.9411765,13.189916 12.9411765,12.887395 L12.9411765,11.6739496 L11.8991597,11.6739496 L11.8991597,18.2184874 C11.8991597,18.4907563 11.6773109,18.7092437 11.4084034,18.7092437 L7.85210084,18.7092437 C7.57983193,18.7092437 7.36134454,18.487395 7.36134454,18.2184874 L7.36134454,8.06722689 C7.36134454,7.75798319 7.48235294,7.46890756 7.70084034,7.25042017 C7.91932773,7.03193277 8.20840336,6.91092437 8.51764706,6.91092437 L12.9445378,6.91428571 L12.9445378,5.6907563 C12.9445378,5.38823529 13.1159664,5.12268908 13.3915966,4.99159664 C13.6672269,4.85714286 13.9932773,4.89747899 14.2352941,5.09243697 Z" id="Señal-carretera_1Light"></path>
        </g>
    </g>
</svg>

<svg width="24" height="24" viewBox="0 0 24 24" xmlns="http://www.w3.org/2000/svg"><path d="M11.808 22.639c7.187 0 10.827-3.64 10.827-10.824C22.635 4.63 18.992.988 11.808.988 4.625.988.985 4.632.985 11.815S4.629 22.64 11.808 22.64zm0-22.639c7.731 0 11.816 4.087 11.816 11.815 0 7.724-4.085 11.809-11.816 11.809C4.084 23.624 0 19.539 0 11.815 0 4.087 4.084 0 11.808 0zm2.121 12.413l3.227-3.119-3.227-3.13v1.18c0 .273-.295.555-.564.555H8.518a.17.17 0 00-.121.05.16.16 0 00-.05.122v9.657h2.564V11.18c0-.272.222-.49.49-.49h1.957c.145.01.282.073.383.174.094.094.182.249.182.38.006 0 .006 1.17.006 1.17zm.306-7.32l3.748 3.633a.77.77 0 01-.027 1.156l-3.687 3.57c-.28.229-.602.266-.877.138a.778.778 0 01-.45-.703v-1.213h-1.043v6.544c0 .273-.222.491-.49.491H7.851a.491.491 0 01-.49-.49V8.066c0-.309.12-.598.339-.817.218-.218.507-.34.817-.34l4.427.004V5.691c0-.303.171-.568.447-.7a.789.789 0 01.843.101z" fill="#5CB615" fill-rule="nonzero"/></svg>
